X:1
T:the Little Diamond
T:the Magic Slipper
T:P_1.2 Brendon Begley's Polka
R:polka
S:Gilbert Bahn-Koepke <G.Bahn-Koepke@t-online.de> irtrad-l 2000-02-06
D:Begley & Cooney: Meitheal ("The Magic Slipper")
D:James Morrison 78 ("The Little Diamond")
D:the Martin Flaherty Band (Copley ___) ("The Girl from Lettermore")
Z:Barney
M:2/4
L:1/16
K:D
B2|:A3B A2F2|D2E2 F2G2|A3B A2F2|G2F2 E4|
D3E F2G2|A2B2| c2d2|e2fe d2c2|1 d4 d2B2:|2 d4 d2e2||
f2d2 g2e2|f2d2 c2d2|A2d2 c2d2|f2e2 e3g|
f2d2 g2e2|f2d2 c2d2|A2g2 e2c2|1 d4 d2e2:|2 d4 d2B2|]
